X: 2
T: The OLYMPIC
%R: hornpipe
B: Jean White "100 Popular Hornpipes, Reels, Jigs and Country Dances", Boston 1880 p.1
F: http://www.loc.gov/resource/sm1880.09124.0#seq-1
Z: 2014 John Chambers <jc:trillian.mit.edu>
M: C|
L: 1/8
K: Bb
% - - - - - - - - - - - - - - - - - - - - - - - - - - - - -
d>e |\
{f}f>=ef>g f>_ed>c | d>cd>e d>cB>A |\
B>AB>c B>df>d | c>Bc>d c>de>f |
g>^fg>a g>=fe>d | e>de>f e>dc>B |\
A>gf>e d>cB>A | c2B2 B2H:|
|: {d}c>B |\
(A<f)Tf2 (a<f)Tf2 | d>fg>a b>ag>a |\
b>ag>f a>gf>=e | (3fag (3fed c2 {d}c>B |
(A<f)Tf2 (a<f)Tf2 | d>fg>a b>ag>a |\
b>ag>f a>gf>=e | {g}f>=ef>g f2 :|
% - - - - - - - - - - - - - - - - - - - - - - - - - - - - -

%%sep 1 1 500
%%sep 1 1 500
